X: 1
T: Over the Hills
C: Trad
M: 4/4
L: 1/8
P: (AB)4B
Z: ABC by Michael Greene & Mackin
G: Sherborne
K: G
W: Warning sneaky extra B part.
[P:A] "G" GABA GABA | G2 "C" E2 E2 "D" D2 | "G" GABA GABA |"C" c2 A2 A4 |
"G" GABA GABA | G2 E2 "C" c4 | E2 DC D2 B2 | c2 A2 "D" A4 |
P: B
"G" d2 dc B2 BA | G2 "C" E2 E2 "D" D2 | "G" d2 dc B2 cd | "C" e2 A2 "D" A2 Bc|
"G" d2 dc B2 BA | G2 E2 "C" c4 | E2 DC D2 B2 | c2 A2 "D" A4 |
